!!!!SEGMENT: pl-wtm--r-954-m_moniuszko-stanislaw-modlitwa.krn
!!!id: 18xx:1666
!!!COM: Moniuszko, Stanisław
!!!OTL: Modlitwa
!!!PDT:
!!!SMS-siglum: PL-Wtm
!!!SMS-shelfmark: R 954/M
!!!NIFC-rismID: 1001093344
!!!URL-scan: http://repozytorium.nifc.pl/skany/pl-wtm-nut--r954m
!!!ONB-nifc:
!!!SMS-variant:
!!!SMS-altvar:
!!!OMD: Andante.
**kern	**kern	**dynam	**kern	**text	**text	**dynam
*part2	*part2	*part2	*part1	*part1	*part1	*part1
*staff3	*staff2	*	*staff1	*staff1	*staff1	*
*I"Organy	*I"Organy	*	*I"Głos	*	*	*
*clefF4	*clefG2	*	*clefF4	*	*	*
*k[b-e-a-]	*k[b-e-a-]	*	*k[b-e-a-]	*	*	*
*M12/8	*M12/8	*	*M12/8	*	*	*
*>[A,A1,A,A2,B]	*>[A,A1,A,A2,B]	*	*>[A,A1,A,A2,B]	*	*	*
=1	=1	=1	=1	=1	=1	=1
*>A	*>A	*	*>A	*	*	*
!	!LO:TX:a:t=Andante.	!LO:DY:t=mf.:rj	!LO:TX:a:t=Andante.	!	!	!
1.r	8c/L 8e-	mf	2.r	.	.	.
.	8c/ 8e-	.	.	.	.	.
.	8c/J 8e-	.	.	.	.	.
*	*tremolo	*	*	*	*	*
!	!LO:TX:t=...	!	!	!	!	!
.	8c/ 8e-L	.	.	.	.	.
.	8c/ 8e-	.	.	.	.	.
.	8c/ 8e-J	.	.	.	.	.
.	8c/ 8e-L	.	4r	.	.	.
.	8c/ 8e-	.	.	.	.	.
.	8c/ 8e-	.	8r	.	.	.
.	8c/ 8e-	.	4r	.	.	.
.	8c/ 8e-	.	.	.	.	.
.	8c/ 8e-J	.	8C/	W_po-	.	.
=2	=2	=2	=2	=2	=2	=2
*	*	*	*^	*	*	*
4CC/ 4C	8c/ 8e-L	.	4C/	8C\	-świ-	W_na	.
.	8c/ 8e-	.	.	8C\	.	sze	.
8DD/ 8D	8c/ 8e-	.	8D/	8D\	-stach	wie-	.
8EE-/L 8E-	8c/ 8e-	.	8E-/L	8E-\L	wi-	-ko-	.
8DD/ 8D	8c/ 8e-	.	8D/J	8D\J	.	-we	.
8CC/J 8C	8c/ 8e-J	.	8C/	8ryy	-chrów	sie-	.
(>4.AA-^>\ (>4.A-	8c/ 8dL	.	4.A-^>\	4.ryy	lo-	-dzi-	.
.	8c/ 8d	.	.	.	.	.	.
.	8c/ 8dJ	.	.	.	.	.	.
8GG\) 8G)	8c/L 8d	.	8G\	4ryy	-su	-by	.
8r	8Bn/ 8d	.	8r	.	.	.	.
8GGG/ 8GG	8B/J 8f	.	8r	8GG\	.	Sza-	.
=3	=3	=3	=3	=3	=3	=3	=3
4CC/ 4C	8c/ 8e-L	.	8C/	4C\	Gdy	-rań-	.
.	8c/ 8e-	.	8C/	.	się	.	.
8DD/ 8D	8c/ 8e-	.	8D/	8D\	za-	-czy	.
8EE-/L 8E-	8c/ 8e-	.	8E-/	4.ryy	-wi-	ta-	.
8DD/ 8D	8c/ 8e-	.	8D/	.	-chrzy	-bór	.
8CC/J 8C	8c/ 8e-J	.	8C/	.	w_ro-	na-	.
(>(>4.AA-^>\ 4.A-	8c/ 8dL	.	4.A-\	2.ryy	-zu-	-cho-	.
.	8c/ 8d	.	.	.	.	.	.
.	8c/ 8dJ	.	.	.	.	.	.
8GG\)) 8G	8c/L 8d	.	8G\	.	-mie	-dzi	.
8r	8Bn/ 8d	.	8r	.	.	.	.
8GGG/ 8GG	8B/J 8f	.	8GG/	.	Gdy	Zgło-	.
*	*	*	*v	*v	*	*	*
!!LO:LB:g=original
=4	=4	=4	=4	=4	=4	=4
8CC/L 8C	8c/ 8e-L	.	8C/	pier-	-dnia-	.
8EE-/ 8E-	8c/ 8e-	.	8E-\	-siom	-ły	.
8GG/J 8G	8c/ 8e-	.	8G\	za-	ro-	.
4C\ 4c	8c/ 8e-	.	4c\	-bra-	-dzin-	.
.	8c/ 8e-	.	.	.	.	.
8BB-\ 8B-	8c/ 8e-J	.	8B-\	-knie-	-ne	.
4.AA-\ 4.A-	8c^>/ 8e- 8ccL	.	4.A-\	-gło-	ski-	.
.	8c^>/ 8e- 8cc	.	.	.	.	.
.	8c^>/ 8e- 8cc	.	.	.	.	.
4EE-/ 4E-	8c^>/ 8e- 8cc	.	4E-\	-su,	-by,	.
.	8c^>/ 8e- 8cc	.	.	.	.	.
8FF/ 8F	8c^>/ 8e- 8ccJ	.	8F	Kark	Schnie	.
=5	=5	=5	=5	=5	=5	=5
*	*^	*	*^	*	*	*
4GG-X/ 4G-X	8anX/L	8c\ 8e-L	.	4G-X\	4.ryy	gnie-	każ-	.
.	8a/	8c\ 8e-	.	.	.	.	.	.
8GG-/ 8G-	8a/	8c\ 8e-J	.	8G-\	.	-cie	-da	.
8GG-/L 8G-	8a/	8c\L 8e-	.	8G-\L	8G-/	nie-	zie-	.
8FF/ 8F	8a/	8c\ 8g	.	8F\J	8F/	-szczę-	.	.
8EE-/J 8E-	8a/J	8c\J 8g-X	.	8E-\	8E-/	-ścia	-mi	.
[4.DD/ [4.D	8d/ 8f 8b-L	4ryy	.	4.D\	2.ryy	głaz	piędź	.
.	8d// 8f 8b-	.	.	.	.	.	.	.
.	8d/ 8f 8b-	2ryy	.	.	.	.	.	.
8DD/] 8D]	8d/ 8f 8b-	.	.	8r	.	.	.	.
8r	8d/ 8f 8b-	.	.	8r	.	.	.	.
8FF/ 8F	8d/ 8f 8b-J	.	.	8F\	.	W_prze-	.	.
=6	=6	=6	=6	=6	=6	=6	=6	=6
4AA-\ 4A-	8bn/L	4.d\ 4.f	.	4A-/	8A-\	-pa-	Nim	.
.	8bn/	.	.	.	8A-\	.	się	.
8AA-\ 8A-	8bn/	.	.	8A-/	8A-\	-ści	o-	.
8AA-/L 8A-	8bn/	8e-\L 8g	.	8A-\	4.ryy	ży-	-sie-	.
8GGn/ 8Gn	8bn/	8d\ 8gn	.	8G\	.	-cia	dli	.
8FF/J 8F	8bn/J	8d\J 8a-	.	8F\	.	burż	roz-	.
*tremolo	*	*	*	*	*	*	*	*
8EE-/ 8E-L	8c/ 8g 8ccL	4ryy	.	4.E-\	2.ryy	szu-	-mno-	.
8EE-/ 8E-	8c/ 8g 8cc	.	.	.	.	.	.	.
8EE-/ 8E-J	8c/ 8g 8ccJ	2ryy	.	.	.	.	.	.
8EEn/ 8EnL	8c/ 8g 8b-XL	.	.	4.En\	.	-mie	-ży	.
8EEn/ 8En	8c/ 8g 8b-X	.	.	.	.	.	.	.
8EEn/ 8EnJ	8c/ 8g 8b-XJ	.	.	.	.	.	.	.
*Xtremolo	*Xtremolo	*	*	*	*	*	*	*
*	*v	*v	*	*	*	*	*	*
*	*	*	*v	*v	*	*	*
!!LO:LB:g=original
=7	=7	=7	=7	=7	=7	=7
2.FF/ 2.F	2.c/ 2.f 2.a-	.	2.F\	Bo-	Bo-	.
4.AAA-/ 4.AA-	2.c/ 2.f 2.a-	.	4.AA-/	-że	-że,	.
4.BBB-/ 4.BB-	.	.	4.BB-/	za-	sza-	.
=8	=8	=8	=8	=8	=8	=8
*	*tremolo	*	*	*	*	*
[<4.CC/ [>4.C	8c/ 8f 8gL	.	[>4.C/	-cho-	-rań-	.
.	8c/ 8f 8g	.	.	.	.	.
.	8c/ 8f 8gJ	.	.	.	.	.
4CC/] 4C]	8c/ 8en 8gL	.	4C/]	.	.	.
.	8c/ 8en 8g	.	.	.	.	.
8CC/ 8C	8c/ 8en 8gJ	.	8C/	-waj	-czę	.
[2.CC/ [2.C	8c/ 8e 8gL	.	[>4.C/	nas!	spędź!	.
.	8c/ 8e 8g	.	.	.	.	.
.	8c/ 8e 8gJ	.	.	.	.	.
*	*Xtremolo	*	*	*	*	*
.	8c/L 8e 8g	.	8C/]	.	.	.
.	8c/ 8e 8g	.	8r	.	.	.
.	8c/J 8e 8cc	.	8r	.	.	.
=9	=9	=9	=9	=9	=9	=9
!	!	!LO:DY:t=sf.:rj	!	!	!	!LO:DY:a:rj
4.CC/] 4.C]	8d-X/L 8f 8dd-X	sf	2.d-X\	Bo-	Bo-	ff
.	8A-/ 8d- 8f	.	.	.	.	.
.	8A-/J 8d- 8f	.	.	.	.	.
2.CC/ 2.C	4.A-/ 4.d- 4.f	.	.	.	.	.
.	4.A-/ 4.d- 4.f	.	4.c\	-że,	-że,	.
[4.CC/ [4.C	4.A-/ 4.Bn 4.f	.	4.Bn\	za-	sza-	.
=10	=10	=10	=10	=10	=10	=10
*	*tremolo	*	*	*	*	*
4.CC/] 4.C]	8G</ 8c 8enL	.	[>4.c\	-cho-	-rań-	.
.	8G</ 8c 8en	.	.	.	.	.
.	8G</ 8c 8en	.	.	.	.	.
(<4C/	8G</ 8c 8en	.	4c\]	.	.	.
.	8G</ 8c 8en	.	.	.	.	.
8CC/)	8G</ 8c 8enJ	.	8C/	-waj	-czę	.
[<2.CC/	8G</ 8c 8eL	.	4C/	nas!	spędź!	.
.	8G</ 8c 8e	.	.	.	.	.
.	8G</ 8c 8e	.	8r	.	.	.
.	8G</ 8c 8e	.	4r	.	.	.
.	8G</ 8c 8e	.	.	.	.	.
.	8G</ 8c 8eJ	.	8r	.	.	.
!!LO:LB:g=original
=11	=11	=11	=11	=11	=11	=11
8CC/]	8G</ 8c 8enL	.	1.r	.	.	.
8r>	8G</ 8c 8en	.	.	.	.	.
8r>	8G</ 8c 8en	.	.	.	.	.
!LO:TX:a:t=m.g.	!	!LO:HP:a:t=sempre crescendo.	!	!	!	!
4g>/ 4cc> 4een>	8G</ 8c 8en	<	.	.	.	.
.	8G</ 8c 8en	.	.	.	.	.
8g>/ 8cc> 8ee>	8G</ 8c 8enJ	.	.	.	.	.
4.g>/ 4cc> 4ee>	8G<\ 8c 8eL	.	.	.	.	.
.	8G<\ 8c 8e	.	.	.	.	.
.	8G<\ 8c 8e	.	.	.	.	.
4.g>/ 4.cc> 4.ee>	8G<\ 8c 8e	.	.	.	.	.
.	8G<\ 8c 8e	.	.	.	.	.
.	8G<\ 8c 8eJ	[[	.	.	.	.
=12	=12	=12	=12	=12	=12	=12
4.g>/ 4.cc> 4.een>	8G<\ 8c 8enL	.	4r	.	.	.
.	8G<\ 8c 8en	.	.	.	.	.
.	8G<\ 8c 8en	.	8C/	Gdy	Tam	.
4CC\ 4C	8G<\ 8c 8en	.	4C/	nie-	wy-	.
.	8G<\ 8c 8en	.	.	.	.	.
8CC\ 8C	8G<\ 8c 8enJ	.	8C/	-bo	-ziew	.
4.CC\ 4.C	8G</ 8c 8eL	.	4.C/	chmu-	za-	.
.	8G</ 8c 8e	.	.	.	.	.
.	8G</ 8c 8eJ	.	.	.	.	.
*	*Xtremolo	*	*	*	*	*
4.CC\ 4.C	8G</L 8c 8e	.	4C/	-ry	-ra-	.
.	8G</ 8c 8e	.	.	.	.	.
.	8G</J 8c 8e	.	8C/	ca-	-zy	.
=13	=13	=13	=13	=13	=13	=13
*	*tremolo	*	*	*	*	*
4.CC#X\ 4.C#X	8G</ 8An< 8enL	.	2.C#X/	-łu-	dmu-	.
.	8G</ 8An< 8en	.	.	.	.	.
.	8G</ 8An< 8en	.	.	.	.	.
!LO:TX:a:t=m.g.	!	!	!	!	!	!
4g>/ 4an> 4een>	8G</ 8An< 8en	.	.	.	.	.
.	8G</ 8An< 8en	.	.	.	.	.
8g>/ 8a> 8ee>	8G</ 8An< 8enJ	.	.	.	.	.
4.g>/ 4.a> 4.ee>	8G<\ 8A< 8eL	.	4C#/	-nem,	-cha,	.
.	8G<\ 8A< 8e	.	.	.	.	.
.	8G<\ 8A< 8e	.	8r	.	.	.
4.g>/ 4.a> 4.ee>	8G<\ 8A< 8e	.	4r	.	.	.
.	8G<\ 8A< 8e	.	.	.	.	.
.	8G<\ 8A< 8eJ	.	8r	.	.	.
!!LO:PB:g=original
=14	=14	=14	=14	=14	=14	=14
4g>/ 4an> 4een>	8G\ 8c#X 8enL	.	8r	.	.	.
.	8G\ 8c#X 8en	.	8r	.	.	.
8AAAn/ 8AAn	8G\ 8c#X 8en	.	8AAn/	Błę-	Ze	.
4CC#X/ 4C#X	8G\ 8c#X 8en	.	4C#X/	-ki-	ste-	.
.	8G\ 8c#X 8en	.	.	.	.	.
8EEn/ 8En	8G\ 8c#X 8enJ	.	8En\	-tne	-pu	.
4.AAn\ 4.An	8G/ 8c# 8eL	.	4.An\	skro-	i	.
.	8G/ 8c# 8e	.	.	.	.	.
.	8G/ 8c# 8e	.	.	.	.	.
4.AA\ 4.A	8G/ 8c# 8e	.	4A\	-nie	lu-	.
.	8G/ 8c# 8e	.	.	.	.	.
.	8G/ 8c# 8eJ	.	8A\	o-	-dzi	.
=15	=15	=15	=15	=15	=15	=15
4.BB-X\ 4.B-X	8A-X/ 8d 8fL	.	2.B-X\	-sło-	ła-	.
.	8A-X/ 8d 8f	.	.	.	.	.
.	8A-X/ 8d 8f	.	.	.	.	.
!LO:TX:a:t=m.g.	!	!	!	!	!	!
4a-X>/ 4dd> 4ff>	8A-X/ 8d 8f	.	.	.	.	.
.	8A-X/ 8d 8f	.	.	.	.	.
8a->/ 8dd> 8ff>	8A-X/ 8d 8fJ	.	.	.	.	.
4.a->/ 4.dd> 4.ff>	8A-\ 8d 8fL	.	4BB-/	-ni,	-knie,	.
.	8A-\ 8d 8f	.	.	.	.	.
.	8A-\ 8d 8f	.	2r	.	.	.
4.a->/ 4.dd> 4.ff>	8A-\ 8d 8f	.	.	.	.	.
.	8A-\ 8d 8f	.	.	.	.	.
.	8A-\ 8d 8fJ	.	.	.	.	.
=16	=16	=16	=16	=16	=16	=16
4.a->/ 4.dd> 4.ff>	8A-\ 8d 8fL	.	8r	.	.	.
.	8A-\ 8d 8f	.	8r	.	.	.
.	8A-\ 8d 8f	.	8D\	I	I	.
4BBB-/ 4BB-	8A-\ 8d 8f	.	4D\	stra-	ci-	.
.	8A-\ 8d 8f	.	.	.	.	.
8BBB-/ 8BB-	8A-\ 8d 8fJ	.	8D\	-sznym	-sza	.
4.BBB-/ 4.BB-	8A-/ 8d 8fL	.	4.D\	gnie-	stra-	.
.	8A-/ 8d 8f	.	.	.	.	.
.	8A-/ 8d 8f	.	.	.	.	.
4.BBB-/ 4.BB-	8A-/ 8d 8f	.	4D\	-wne	-szna	.
.	8A-/ 8d 8f	.	.	.	.	.
.	8A-/ 8d 8fJ	.	8D\	pio-	i	.
!!LO:LB:g=original
=17	=17	=17	=17	=17	=17	=17
4.BBBn/ 4.BBn	8An/ 8d#X 8f#XL	.	2.D#X\	-ru-	głu-	.
.	8An/ 8d#X 8f#X	.	.	.	.	.
.	8An/ 8d#X 8f#X	.	.	.	.	.
!LO:TX:a:t=m.g.	!	!	!	!	!	!
4a>/ 4dd#X> 4ff#X>	8An/ 8d#X 8f#X	.	.	.	.	.
.	8An/ 8d#X 8f#X	.	.	.	.	.
8a>/ 8dd#> 8ff#>	8An/ 8d#X 8f#XJ	.	.	.	.	.
4.a>/ 4.dd#> 4.ff#>	8A\ 8d# 8f#L	.	4D#\	-nem,	-cha,	.
.	8A\ 8d# 8f#	.	.	.	.	.
.	8A\ 8d# 8f#	.	8r	.	.	.
4.a>/ 4.dd#> 4.ff#>	8A\ 8d# 8f#	.	4r	.	.	.
.	8A\ 8d# 8f#	.	.	.	.	.
.	8A\ 8d# 8f#J	.	8r	.	.	.
=18	=18	=18	=18	=18	=18	=18
4an>/ 4dd#X> 4ff#X>	2.An\ 2.d#X 2.f#X	.	8r	.	.	.
.	.	.	8r	.	.	.
8BBBn/ 8BBn	.	.	8BBn/	W_ro-	O-	.
4DD#X/ 4D#X	.	.	4D#X\	-dzin-	-sia-	.
8FF#X/ 8F#X	.	.	8F#X\	-ny	-da	.
4.BBn\ 4.Bn	8A/ 8d# 8f#L	.	4.Bn\	wy-	mia-	.
.	8A/ 8d# 8f#	.	.	.	.	.
.	8A/ 8d# 8f#	.	.	.	.	.
4.BB\ 4.B	8A/ 8d# 8f#	.	4B\	-mie-	-sta	.
.	8A/ 8d# 8f#	.	.	.	.	.
.	8A/ 8d# 8f#J	.	8B\	-rzy	i	.
=19	=19	=19	=19	=19	=19	=19
4.C\ 4.c	8B-X/ 8en 8gL	.	2.c\	dom.	wsie.	.
.	8B-X/ 8en 8g	.	.	.	.	.
.	8B-X/ 8en 8g	.	.	.	.	.
!LO:TX:a:t=m.g.	!	!	!	!	!	!
4b-X>/ 4een> 4gg>	8B-X/ 8en 8g	.	.	.	.	.
.	8B-X/ 8en 8g	.	.	.	.	.
8b->/ 8ee> 8gg>	8B-X/ 8en 8gJ	.	.	.	.	.
!	!	!	!LO:TX:t=P:problem:brak pauzy 4r	!	!	!
4.b->/ 4.ee> 4.gg>	8B-\ 8e 8gL	.	4ryy	.	.	.
.	8B-\ 8e 8g	.	.	.	.	.
.	8B-\ 8e 8g	.	2r	.	.	.
4.b->/ 4.ee> 4.gg>	8B-\ 8e 8g	.	.	.	.	.
.	8B-\ 8e 8g	.	.	.	.	.
.	8B-\ 8e 8gJ	.	.	.	.	.
!!LO:LB:g=original
=20	=20	=20	=20	=20	=20	=20
4b->/ 4een> 4gg>	8B-\ 8en 8gL	.	8r	.	.	.
.	8B-\ 8en 8g	.	8r	.	.	.
8CC/ 8C	8B-\ 8en 8g	.	8C/	Za-	Za-	.
4EEn/ 4En	8B-\ 8en 8g	.	4En\	-nim	-nim	.
.	8B-\ 8en 8g	.	.	.	.	.
8GG/ 8G	8B-\ 8en 8gJ	.	8G\	dzwon	czło-	.
4.C\ 4.c	8B-/ 8e 8gL	.	4.c\	bu-	-wie-	.
.	8B-/ 8e 8g	.	.	.	.	.
.	8B-/ 8e 8g	.	.	.	.	.
4.C\ 4.c	8B-/ 8e 8g	.	4c\	-rzę	-ka	.
.	8B-/ 8e 8g	.	.	.	.	.
.	8B-/ 8e 8gJ	.	8c\	roz-	za-	.
=21	=21	=21	=21	=21	=21	=21
4.C#X\ 4.c#X	8B-/ 8e-X 8gL	.	2.c#X\	-go-	-bra-	.
.	8B-/ 8e-X 8g	.	.	.	.	.
.	8B-/ 8e-X 8g	.	.	.	.	.
!LO:TX:a:t=m.g.	!	!	!	!	!	!
4b->/ 4cc#X> 4ee-X> 4gg>	8B-X/ 8e-X 8g	.	.	.	.	.
.	8B-/ 8e-X 8g	.	.	.	.	.
8b->/ 8cc#> 8ee-> 8gg>	8B-/ 8e-X 8gJ	.	.	.	.	.
4b->/ 4cc#> 4ee-> 4gg>	8B-\ 8e- 8gL	.	4.c#\	-ni,	-knie,	.
.	8B-\ 8e- 8g	.	.	.	.	.
8r>	8B-\ 8e- 8g	.	.	.	.	.
4.CC#X/ 4.C#X	8B-\ 8e- 8g	.	4.c#\	O	O	.
.	8B-\ 8e- 8g	.	.	.	.	.
.	8B-\ 8e- 8gJ	.	.	.	.	.
=22	=22	=22	=22	=22	=22	=22
*tremolo	*	*	*	*	*	*
!	!	!LO:DY:rj	!	!	!	!LO:DY:rj
8DD/L 8D	8Bn/ 8d 8gL	ff	2.d\	Bo-	Bo-	ff
8DD/ 8D	8Bn/ 8d 8g	.	.	.	.	.
8DD/ 8D	8Bn/ 8d 8g	.	.	.	.	.
8DD/ 8D	8Bn/ 8d 8g	.	.	.	.	.
8DD/ 8D	8Bn/ 8d 8g	.	.	.	.	.
8DD/J 8D	8Bn/ 8d 8gJ	.	.	.	.	.
*Xtremolo	*	*	*	*	*	*
2.DD/ 2.DL	8B/ 8d 8gL	.	4.Bn\	-że!	-że!	.
.	8B/ 8d 8g	.	.	.	.	.
.	8B/ 8d 8g	.	.	.	.	.
.	8B/ 8d 8g	.	4.G\	O	O	.
.	8B/ 8d 8g	.	.	.	.	.
.	8B/ 8d 8gJ	.	.	.	.	.
=23	=23	=23	=23	=23	=23	=23
1.DD	8An/ 8c 8gL	.	[>4.en\	Bo-	Bo-	.
.	8An/ 8c 8g	.	.	.	.	.
.	8An/ 8c 8gJ	.	.	.	.	.
*	*Xtremolo	*	*	*	*	*
.	8A/L 8c 8g	.	4e\]	.	.	.
.	8A/ 8c 8g	.	.	.	.	.
.	8A/J 8c 8f#X	.	8d\	że	-że	.
.	4.A/ 4.c 4.en	.	4.c\	wstrzy-	o-	.
.	4.A/ 4.c 4.f#	.	4.An\	-maj	-czyść	.
!!LO:LB:g=original
=24	=24	=24	=24	=24	=24	=24
*	*^	*	*	*	*	*
*	*	*tremolo	*	*	*	*	*
[<1.GGG [>1.GG	[>4.g/	8Bn\ 8dL	.	[>4.G\	grom!	je!	.
.	.	8Bn\ 8d	.	.	.	.	.
.	.	8Bn\ 8d	.	.	.	.	.
.	4g/]	8Bn\ 8d	.	4G\]	.	.	.
.	.	8Bn\ 8d	.	.	.	.	.
.	8r	8Bn\ 8dJ	.	8r	.	.	.
!	!	!	!LO:DY:t=mf.:rj	!LO:TX:t=P:problem:brak pauzy 4r	!	!	!
.	4.a-^/	8B\ 8dL	mf	4ryy	.	.	.
.	.	8B\ 8d	.	.	.	.	.
.	.	8B\ 8d	.	2r	.	.	.
.	4g/	8B\ 8d	.	.	.	.	.
.	.	8B\ 8d	.	.	.	.	.
.	8f#X/	8B\ 8dJ	.	.	.	.	.
=25	=25	=25	=25	=25	=25	=25	=25
1.GGG_< 1.GG_>	4.g/	8Bn\ 8dL	.	1.r	.	.	.
.	.	8Bn\ 8d	.	.	.	.	.
.	.	8Bn\ 8dJ	.	.	.	.	.
.	4.en/	8B-X\ 8d-XL	.	.	.	.	.
.	.	8B-X\ 8d-X	.	.	.	.	.
.	.	8B-X\ 8d-XJ	.	.	.	.	.
.	4.f/	8An\ 8cL	.	.	.	.	.
.	.	8An\ 8c	.	.	.	.	.
.	.	8An\ 8cJ	.	.	.	.	.
.	4.f#X/	8A-X\ 8cL	.	.	.	.	.
.	.	8A-X\ 8c	.	.	.	.	.
.	.	8A-X\ 8cJ	.	.	.	.	.
*	*v	*v	*	*	*	*	*
=26	=26	=26	=26	=26	=26	=26
!LO:TX:a:t=1ma volta	!LO:TX:a:t=1ma volta	!	!LO:TX:a:t=1ma volta	!	!	!
*>A1	*A1	*	*A1	*	*	*
4GGG/] 4GG]	4G/ 4Bn 4d 4g	.	1.r	.	.	.
8r	8B/ 8d	.	.	.	.	.
4r	4B/ 4d	.	.	.	.	.
8r	8B/ 8d	.	.	.	.	.
(>4.A-^>\	8c/ 8dL	.	.	.	.	.
.	8c/ 8d	.	.	.	.	.
.	8c/ 8d	.	.	.	.	.
4G\	8c/ 8d	.	.	.	.	.
.	8c/ 8d	.	.	.	.	.
8F#X\	8c/ 8dJ	.	.	.	.	.
*	*Xtremolo	*	*	*	*	*
=27	=27	=27	=27	=27	=27	=27
!LO:TX:t=P:problem:mixedbeam	!	!	!	!	!	!
8G\L)	8Bn/L 8d	.	1.r	.	.	.
8GG/	8G/ 8g	.	.	.	.	.
8GG/J	8G/J 8g	.	.	.	.	.
*tremolo	*tremolo	*	*	*	*	*
8GG/L	8G/ 8gL	.	.	.	.	.
8GG/	8G/ 8g	.	.	.	.	.
8GG/J	8G/ 8gJ	.	.	.	.	.
*Xtremolo	*Xtremolo	*	*	*	*	*
8BB-X/L	8B-X/L 8b-X	.	.	.	.	.
8AA-/	8A-/ 8a-	.	.	.	.	.
8GG/J	8G/J 8g	.	.	.	.	.
8FF/L	8F/L 8f	.	.	.	.	.
8EE-/	8E-/ 8e-	.	.	.	.	.
8DD/J	8D/J 8d	.	.	.	.	.
!!LO:PB:g=original
=28:|!	=28:|!	=28:|!	=28:|!	=28:|!	=28:|!	=28:|!
!LO:TX:a:t=2da volta	!LO:TX:a:t=2da volta	!	!LO:TX:a:t=2da volta	!	!	!
*>A2	*>A2	*	*>A2	*	*	*
8GGG/L 8GG	8GL/ 8Bn 8d 8g	.	1.r	.	.	.
8GGG/ 8GG	8G/ 8g	.	.	.	.	.
8GGG/J 8GG	8G/J 8g	.	.	.	.	.
*tremolo	*tremolo	*	*	*	*	*
8GGG/ 8GGL	8G/ 8gL	.	.	.	.	.
8GGG/ 8GG	8G/ 8g	.	.	.	.	.
8GGG/ 8GGJ	8G/ 8gJ	.	.	.	.	.
*Xtremolo	*Xtremolo	*	*	*	*	*
8GGG/L 8GG	8G/L 8g	<	.	.	.	.
8GGG/ 8GG	8G/ 8g	.	.	.	.	.
8AAA-/J 8AA-	8A-/J 8a-	.	.	.	.	.
8AAAn/L 8AAn	8An/L 8an	.	.	.	.	.
8BBB-/ 8BB-	8B/ 8b-	.	.	.	.	.
8BBBn/J 8BBn	8B/J 8bn	.	.	.	.	.
=29	=29	=29	=29	=29	=29	=29
!	!	!	!LO:N:vis=2	!	!	!
8CC/L 8C	8c/L 8cc	.	2.r	.	.	.
8CC#X/ 8C#X	8c#X/ 8cc#X	.	.	.	.	.
8DD/J 8D	8d/J 8dd	.	.	.	.	.
8EE-/L 8E-	8e-/L 8ee-	.	.	.	.	.
8EEn/ 8En	8en/ 8een	.	.	.	.	.
8FF/J 8F	8f/J 8ff	.	.	.	.	.
*>B	*>B	*	*>B	*	*	*
8FF#X/L 8F#X	8f#X/L 8ff#X	.	4r	.	.	.
8GG/ 8G	8g/ 8gg	.	.	.	.	.
8AA-/J 8A-	8a-/J 8aa-	.	8r	.	.	.
8AAn/L 8An	8an/L 8aan	.	4r	.	.	.
8BB-/ 8B-	8b-/ 8bb-	[	.	.	.	.
8BBn/J 8Bn	8bn/J 8bbn	f	8GG/	Tu	.	.
=30	=30	=30	=30	=30	=30	=30
*	*^	*	*	*	*	*
*	*tremolo	*	*	*	*	*	*
!	!	!	!	!	!	!	!LO:DY:rj
4C/ 4c	8cc\ 8ee- 8cccL	2.ryy	.	4C/	gro-	.	f
.	8cc\ 8ee- 8ccc	.	.	.	.	.	.
8DD/ 8D	8cc\ 8ee- 8ccc	.	.	8D/	-by,	.	.
8EE-/L 8E-	8cc\ 8ee- 8ccc	.	>	8E-/	gro-	.	.
8DD/ 8D	8cc\ 8ee- 8ccc	.	.	8D/	-by	.	.
8CC/J 8C	8cc\ 8ee- 8cccJ	.	.	8C/	i	.	.
(>4.AA-^\ 4.A-	8cc#X\ 8ee- 8cccL	(>4.ff#X/	.	4.A-\	gro-	.	.
.	8cc#X\ 8ee- 8ccc	.	.	.	.	.	.
.	8cc#X\ 8ee- 8ccc	.	.	.	.	.	.
4GG\) 4G	8cc#X\ 8ee- 8ccc	4gg/)	.	4G\	-by	.	.
.	8cc#X\ 8ee- 8ccc	.	.	.	.	.	.
8r	8cc#X\ 8ee- 8cccJ	8r	]]	8r	.	.	.
!!LO:LB:g=original
=31	=31	=31	=31	=31	=31	=31	=31
4CC/ 4C	8cc\ 8ee- 8cccL	2.ryy	.	8C/	Tra-	.	.
.	8cc\ 8ee- 8ccc	.	.	8C/	-wa	.	.
8DD/ 8D	8cc\ 8ee- 8ccc	.	.	8D/	nie	.	.
8EE-/L 8E-	8cc\ 8ee- 8ccc	.	.	8E-/	wycho-	.	.
8DD/ 8D	8cc\ 8ee- 8ccc	.	.	8D/	-dzi	.	.
8CC/J 8C	8cc\ 8ee- 8cccJ	.	.	8C/	nad	.	.
(>4.AA-^\ (>4.A-	8cc#X\ 8ee- 8cccL	(>4.ff#X/	.	(4.A-^\	nie-	.	.
.	8cc#X\ 8ee- 8ccc	.	.	.	.	.	.
.	8cc#X\ 8ee- 8ccc	.	.	.	.	.	.
4GG\) 4G)	8cc#X\ 8ee- 8ccc	4gg/)	.	4G\)	-mi,	.	.
.	8cc#X\ 8ee- 8ccc	.	.	.	.	.	.
8r	8cc#X\ 8ee- 8cccJ	8r	.	8r	.	.	.
*	*v	*v	*	*	*	*	*
=32	=32	=32	=32	=32	=32	=32
8CC/L 8C	8cc\ 8ee- 8cccL	.	8C/	Ko-	.	.
8EE-/ 8E-	8cc\ 8ee- 8ccc	.	8E-/	-pią	.	.
8GG/J 8G	8cc\ 8ee- 8ccc	.	8G/	od	.	.
(>(>4C^\ 4c	8cc\ 8ee- 8ccc	.	8c\	do-	.	.
.	8cc\ 8ee- 8ccc	.	8c\	-by	.	.
8BB-\)) 8B-	8cc\ 8ee- 8cccJ	.	8B-\	do	.	.
4.AA-\ 4.A-	8cc\ 8ee- 8cccL	.	4.A-\	do-	.	.
.	8cc\ 8ee- 8ccc	.	.	.	.	.
.	8cc\ 8ee- 8ccc	.	.	.	.	.
4EE-/ 4E-	8cc\ 8ee- 8ccc	.	4E-\	-by,	.	.
.	8cc\ 8ee- 8ccc	.	.	.	.	.
8FF/ 8F	8cc\ 8ee- 8cccJ	.	8F\	I	.	.
=33	=33	=33	=33	=33	=33	=33
4GG-X/ 4G-X	8cc\ 8ee- 8aan 8cccL	.	4G-X\	grze-	.	.
.	8cc\ 8ee- 8aan 8ccc	.	.	.	.	.
8GG-/ 8G-	8cc\ 8ee- 8aan 8ccc	.	8G-\	-bią	.	.
8GG-/L 8G-	8cc\ 8ee- 8aan 8ccc	.	8G-\L	star-	.	.
8FF/ 8F	8cc\ 8ee- 8aan 8ccc	.	8F\	-ce	.	.
8EE-/J 8E-	8cc\ 8ee- 8aan 8cccJ	.	8E-\J	i	.	.
[>4.DD/ [>4.D	8b-\ 8ff 8aa-X 8bb-L	.	4.D\	młódź;	.	.
.	8b-\ 8ff 8aa-X 8bb-	.	.	.	.	.
.	8b-\ 8ff 8aa-X 8bb-	.	.	.	.	.
4DD/] 4D]	8b-\ 8ff 8aa-X 8bb-	.	4r	.	.	.
.	8b-\ 8ff 8aa-X 8bb-	.	.	.	.	.
8FF 8F	8b-\ 8ff 8aa-X 8bb-J	.	8F\	Na	.	.
!!LO:LB:g=original
=34	=34	=34	=34	=34	=34	=34
4AA-\ 4A-	8bn\ 8dd 8ff 8bbnL	.	4A-\	cmen-	.	.
.	8bn\ 8dd 8ff 8bbn	.	.	.	.	.
8AA-\ 8A-	8bn\ 8dd 8ff 8bbnJ	.	8A-\	-tarz	.	.
*	*Xtremolo	*	*	*	*	*
8AA-/L 8A-	8b\L 8dd 8ff 8bb	.	8A-\	nim	.	.
8GGn/ 8Gn	8b\ 8dd 8ff 8bb	.	8G\	zbra-	.	.
8FF/J 8F	8b\J 8dd 8aa- 8bb	.	8F\	-knie	.	.
*	*tremolo	*	*	*	*	*
4.EE-/ 4.E-	8cc\ 8gg 8cccL	.	4.E-\	zie-	.	.
.	8cc\ 8gg 8ccc	.	.	.	.	.
.	8cc\ 8gg 8cccJ	.	.	.	.	.
4.EEn/ 4.En	8cc\ 8gg 8bb-X 8cccL	.	8En\	-mi,	.	.
.	8cc\ 8gg 8bb-X 8ccc	.	8r	.	.	.
.	8cc\ 8gg 8bb-X 8cccJ	.	8E\	O	.	.
=35	=35	=35	=35	=35	=35	=35
2.FF/ 2.F	8cc\ 8gg 8bb- 8cccL	.	(2.F\	Bo-	.	.
.	8cc\ 8gg 8bb- 8ccc	.	.	.	.	.
.	8cc\ 8gg 8bb- 8cccJ	.	.	.	.	.
*	*Xtremolo	*	*	*	*	*
.	8cc\L 8ff 8aa- 8ccc	.	.	.	.	.
.	8cc\ 8ff 8aa- 8ccc	.	.	.	.	.
.	8cc\J 8een 8gg 8ccc	.	.	.	.	.
4.AAA-/ 4.AA-	2.cc\ 2.ff 2.ccc	.	4.AA-/)	[[że]]	.	.
4.BBB-/ 4.BB-	.	.	4.BB-/	-że	.	.
=36	=36	=36	=36	=36	=36	=36
*tremolo	*tremolo	*	*	*	*	*
32CC/LLL	8cc\ 8een 8gg 8cccL	.	[>4.C/	z_gro-	.	.
32C/	.	.	.	.	.	.
32CC/	.	.	.	.	.	.
32C/	.	.	.	.	.	.
32CC/	8cc\ 8een 8gg 8ccc	.	.	.	.	.
32C/	.	.	.	.	.	.
32CC/	.	.	.	.	.	.
32C/	.	.	.	.	.	.
32CC/	8cc\ 8een 8gg 8cccJ	.	.	.	.	.
32C/	.	.	.	.	.	.
32CC/	.	.	.	.	.	.
32C/	.	.	.	.	.	.
*	*Xtremolo	*	*	*	*	*
32CC/	8cc\L 8ee 8gg 8ccc	<	4C/]	.	.	.
32C/	.	.	.	.	.	.
32CC/	.	.	.	.	.	.
32C/	.	.	.	.	.	.
32CC/	8cc\ 8ee 8gg	.	.	.	.	.
32C/	.	.	.	.	.	.
32CC/	.	.	.	.	.	.
32C/	.	.	.	.	.	.
32CC/	8cc\J 8ee 8gg	.	8C/	-bów	.	.
32C/	.	.	.	.	.	.
32CC/	.	.	.	.	.	.
32C/JJJ	.	.	.	.	.	.
32CC/LLL	8cc\L 8ee 8gg	.	4C/	zbudź.	.	.
32C/	.	.	.	.	.	.
32CC/	.	.	.	.	.	.
32C/	.	.	.	.	.	.
32CC/	8g\ 8cc 8ee	.	.	.	.	.
32C/	.	.	.	.	.	.
32CC/	.	.	.	.	.	.
32C/	.	.	.	.	.	.
32CC/	8g\J 8cc 8ee	.	8r	.	.	.
32C/	.	.	.	.	.	.
32CC/	.	.	.	.	.	.
32C/	.	.	.	.	.	.
32CC/	8g/L 8cc 8ee	.	4.c\	O	.	.
32C/	.	.	.	.	.	.
32CC/	.	.	.	.	.	.
32C/	.	.	.	.	.	.
32CC/	8en/ 8g 8cc	.	.	.	.	.
32C/	.	.	.	.	.	.
32CC/	.	.	.	.	.	.
32C/	.	.	.	.	.	.
32CC/	8e/J 8g 8cc	[[	.	.	.	.
32C/	.	.	.	.	.	.
32CC/	.	.	.	.	.	.
32C/JJJ	.	.	.	.	.	.
!!LO:LB:g=original
=37	=37	=37	=37	=37	=37	=37
*	*tremolo	*	*	*	*	*
!	!	!LO:DY:rj	!LO:TX:b:i:t=rall&colon;	!	!	!LO:DY:rj
32CC/LLL	32f/ 32a- 32dd-XLLL	ff	(>2.d-X\	Bo-	.	ff
32C/	32d-X/	.	.	.	.	.
32CC/	32f/ 32a- 32dd-X	.	.	.	.	.
32C/	32d-X/	.	.	.	.	.
32CC/	32f/ 32a- 32dd-X	.	.	.	.	.
32C/	32d-X/	.	.	.	.	.
32CC/	32f/ 32a- 32dd-X	.	.	.	.	.
32C/	32d-X/	.	.	.	.	.
32CC/	32f/ 32a- 32dd-X	.	.	.	.	.
32C/	32d-X/	.	.	.	.	.
32CC/	32f/ 32a- 32dd-X	.	.	.	.	.
32C/	32d-X/	.	.	.	.	.
!	!LO:TX:b:i:t=rall.	!	!	!	!	!
32CC/	32f/ 32a- 32dd-X	.	.	.	.	.
32C/	32d-X/	.	.	.	.	.
32CC/	32f/ 32a- 32dd-X	.	.	.	.	.
32C/	32d-X/	.	.	.	.	.
32CC/	32f/ 32a- 32dd-X	.	.	.	.	.
32C/	32d-X/	.	.	.	.	.
32CC/	32f/ 32a- 32dd-X	.	.	.	.	.
32C/	32d-X/	.	.	.	.	.
32CC/	32f/ 32a- 32dd-X	.	.	.	.	.
32C/	32d-X/	.	.	.	.	.
32CC/	32f/ 32a- 32dd-X	.	.	.	.	.
32C/JJJ	32d-X/JJJ	.	.	.	.	.
32CC/LLL	32f/ 32a- 32ccLLL	.	4.c\)	.	.	.
32C/	32c/	.	.	.	.	.
32CC/	32f/ 32a- 32cc	.	.	.	.	.
32C/	32c/	.	.	.	.	.
32CC/	32f/ 32a- 32cc	.	.	.	.	.
32C/	32c/	.	.	.	.	.
32CC/	32f/ 32a- 32cc	.	.	.	.	.
32C/	32c/	.	.	.	.	.
32CC/	32f/ 32a- 32cc	.	.	.	.	.
32C/	32c/	.	.	.	.	.
32CC/	32f/ 32a- 32cc	.	.	.	.	.
32C/	32c/JJJ	.	.	.	.	.
32CC/	32d-/ 32f 32bnLLL	.	4.Bn\	-że	.	.
32C/	32Bn/	.	.	.	.	.
32CC/	32d-/ 32f 32bn	.	.	.	.	.
32C/	32Bn/	.	.	.	.	.
32CC/	32d-/ 32f 32bn	.	.	.	.	.
32C/	32Bn/	.	.	.	.	.
32CC/	32d-/ 32f 32bn	.	.	.	.	.
32C/	32Bn/	.	.	.	.	.
32CC/	32d-/ 32f 32bn	.	.	.	.	.
32C/	32Bn/	.	.	.	.	.
32CC/	32d-/ 32f 32bn	.	.	.	.	.
32C/JJJ	32Bn/JJJ	.	.	.	.	.
=38	=38	=38	=38	=38	=38	=38
32CC/ 32EEn 32GGLLL	32en/ 32g 32ccLLL	.	[>2.c\	z_gro-	.	.
32C/	32c/	.	.	.	.	.
32CC/ 32EEn 32GG	32en/ 32g 32cc	.	.	.	.	.
32C/	32c/	.	.	.	.	.
32CC/ 32EEn 32GG	32en/ 32g 32cc	.	.	.	.	.
32C/	32c/	.	.	.	.	.
32CC/ 32EEn 32GG	32en/ 32g 32cc	.	.	.	.	.
32C/	32c/	.	.	.	.	.
32CC/ 32EEn 32GG	32en/ 32g 32cc	.	.	.	.	.
32C/	32c/	.	.	.	.	.
32CC/ 32EEn 32GG	32en/ 32g 32cc	.	.	.	.	.
32C/	32c/	.	.	.	.	.
32CC/ 32EEn 32GG	32en/ 32g 32cc	.	.	.	.	.
32C/	32c/	.	.	.	.	.
32CC/ 32EEn 32GG	32en/ 32g 32cc	.	.	.	.	.
32C/	32c/	.	.	.	.	.
32CC/ 32EEn 32GG	32en/ 32g 32cc	.	.	.	.	.
32C/	32c/	.	.	.	.	.
32CC/ 32EEn 32GG	32en/ 32g 32cc	.	.	.	.	.
32C/	32c/	.	.	.	.	.
32CC/ 32EEn 32GG	32en/ 32g 32cc	.	.	.	.	.
32C/	32c/	.	.	.	.	.
32CC/ 32EEn 32GG	32en/ 32g 32cc	.	.	.	.	.
32C/JJJ	32c/JJJ	.	.	.	.	.
32CC/ 32EE 32GGLLL	32e/ 32g 32ccLLL	.	4.c\_>	.	.	.
32C/	32c/	.	.	.	.	.
32CC/ 32EE 32GG	32e/ 32g 32cc	.	.	.	.	.
32C/	32c/	.	.	.	.	.
32CC/ 32EE 32GG	32e/ 32g 32cc	.	.	.	.	.
32C/	32c/	.	.	.	.	.
32CC/ 32EE 32GG	32e/ 32g 32cc	.	.	.	.	.
32C/	32c/	.	.	.	.	.
32CC/ 32EE 32GG	32e/ 32g 32cc	.	.	.	.	.
32C/	32c/	.	.	.	.	.
32CC/ 32EE 32GG	32e/ 32g 32cc	.	.	.	.	.
32C/	32c/	.	.	.	.	.
32CC/ 32EE 32GG	32e/ 32g 32cc	.	4c\]	.	.	.
32C/	32c/	.	.	.	.	.
32CC/ 32EE 32GG	32e/ 32g 32cc	.	.	.	.	.
32C/	32c/	.	.	.	.	.
32CC/ 32EE 32GG	32e/ 32g 32cc	.	.	.	.	.
32C/	32c/	.	.	.	.	.
32CC/ 32EE 32GG	32e/ 32g 32cc	.	.	.	.	.
32C/	32c/	.	.	.	.	.
32CC/ 32EE 32GG	32e/ 32g 32cc	.	8C/	-bów	.	.
32C/	32c/	.	.	.	.	.
32CC/ 32EE 32GG	32e/ 32g 32cc	.	.	.	.	.
32C/JJJ	32c/JJJ	.	.	.	.	.
=39	=39	=39	=39	=39	=39	=39
!	!	!LO:HP:t=dim&colon;	!	!	!	!
32CC/ 32EEn 32GGLLL	32en/ 32gLLL	>	[>4.C/	zbudź!	.	.
32C/	32c/	.	.	.	.	.
32CC/ 32EEn 32GG	32en/ 32g	.	.	.	.	.
32C/	32c/	.	.	.	.	.
32CC/ 32EEn 32GG	32en/ 32g	.	.	.	.	.
32C/	32c/	.	.	.	.	.
32CC/ 32EEn 32GG	32en/ 32g	.	.	.	.	.
32C/	32c/	.	.	.	.	.
32CC/ 32EEn 32GG	32en/ 32g	.	.	.	.	.
32C/	32c/	.	.	.	.	.
32CC/ 32EEn 32GG	32en/ 32g	.	.	.	.	.
32C/	32c/	.	.	.	.	.
32CC/ 32EEn 32GG	32en/ 32g	.	4C/]	.	.	.
32C/	32c/	.	.	.	.	.
32CC/ 32EEn 32GG	32en/ 32g	.	.	.	.	.
32C/	32c/	.	.	.	.	.
32CC/ 32EEn 32GG	32en/ 32g	.	.	.	.	.
32C/	32c/	.	.	.	.	.
32CC/ 32EEn 32GG	32en/ 32g	.	.	.	.	.
32C/	32c/	.	.	.	.	.
32CC/ 32EEn 32GG	32en/ 32g	.	8r	.	.	.
32C/	32c/	.	.	.	.	.
32CC/ 32EEn 32GG	32en/ 32g	.	.	.	.	.
32C/JJJ	32c/JJJ	.	.	.	.	.
!	!LO:TX:a:i:t=a tempo.	!	!LO:TX:t=P:problem:brak pauzy 4r	!	!	!
32CC/ 32EE 32GGLLL	32e/ 32gLLL	>	4ryy	.	.	.
32C/	32c/	.	.	.	.	.
32CC/ 32EE 32GG	32e/ 32g	.	.	.	.	.
32C/	32c/	.	.	.	.	.
32CC/ 32EE 32GG	32e/ 32g	.	.	.	.	.
32C/	32c/	.	.	.	.	.
32CC/ 32EE 32GG	32e/ 32g	.	.	.	.	.
32C/	32c/	.	.	.	.	.
32CC/ 32EE 32GG	32e/ 32g	.	2r	.	.	.
32C/	32c/	.	.	.	.	.
32CC/ 32EE 32GG	32e/ 32g	.	.	.	.	.
32C/	32c/	.	.	.	.	.
32CC/ 32EE 32GG	32e/ 32g	.	.	.	.	.
32C/	32c/	.	.	.	.	.
32CC/ 32EE 32GG	32e/ 32g	.	.	.	.	.
32C/	32c/	.	.	.	.	.
32CC/ 32EE 32GG	32e/ 32g	.	.	.	.	.
32C/	32c/	.	.	.	.	.
32CC/ 32EE 32GG	32e/ 32g	.	.	.	.	.
32C/	32c/	.	.	.	.	.
32CC/ 32EE 32GG	32e/ 32g	.	.	.	.	.
32C/	32c/	.	.	.	.	.
32CC/ 32EE 32GG	32e/ 32g	.	.	.	.	.
32C/JJJ	32c/JJJ	.	.	.	.	.
*Xtremolo	*	*	*	*	*	*
=40	=40	=40	=40	=40	=40	=40
*^	*	*	*	*	*	*
1.En 1.G	4.CC\ 4.C	32c/LLL	.	1.r	.	.	.
.	.	32c/	.	.	.	.	.
.	.	32c/	.	.	.	.	.
.	.	32c/	.	.	.	.	.
.	.	32c/	.	.	.	.	.
.	.	32c/	.	.	.	.	.
.	.	32c/	.	.	.	.	.
.	.	32c/	.	.	.	.	.
.	.	32c/	.	.	.	.	.
.	.	32c/	.	.	.	.	.
.	.	32c/	.	.	.	.	.
.	.	32c/	.	.	.	.	.
.	4C\C 4C	32c/	.	.	.	.	.
.	.	32c/	.	.	.	.	.
.	.	32c/	.	.	.	.	.
.	.	32c/	.	.	.	.	.
.	.	32c/	.	.	.	.	.
.	.	32c/	.	.	.	.	.
.	.	32c/	.	.	.	.	.
.	.	32c/	.	.	.	.	.
.	8CC\ 8C	32c/	.	.	.	.	.
.	.	32c/	.	.	.	.	.
.	.	32c/	.	.	.	.	.
.	.	32c/	.	.	.	.	.
.	4CC\ 4C	32c/	.	.	.	.	.
.	.	32c/	.	.	.	.	.
.	.	32c/	.	.	.	.	.
.	.	32c/	.	.	.	.	.
.	.	32c/	.	.	.	.	.
.	.	32c/	.	.	.	.	.
.	.	32c/	.	.	.	.	.
.	.	32c/	.	.	.	.	.
.	8CCC/ 8CC	32c/	]	.	.	.	.
.	.	32c/	.	.	.	.	.
.	.	32c/	.	.	.	.	.
.	.	32c/	.	.	.	.	.
.	4CCC/ 4CC	32c/	.	.	.	.	.
.	.	32c/	.	.	.	.	.
.	.	32c/	.	.	.	.	.
.	.	32c/	.	.	.	.	.
.	.	32c/	.	.	.	.	.
.	.	32c/	.	.	.	.	.
.	.	32c/	.	.	.	.	.
.	.	32c/	.	.	.	.	.
.	8CCC/ 8CC	32c/	.	.	.	.	.
.	.	32c/	.	.	.	.	.
.	.	32c/	.	.	.	.	.
.	.	32c/JJJ	.	.	.	.	.
*	*	*Xtremolo	*	*	*	*	*
=41	=41	=41	=41	=41	=41	=41	=41
!	!	!LO:N:vis=1	!	!	!	!	!
!LO:N:vis=1	!	!LO:TX:a:i:t=fine.	!LO:DY:t=p.:rj	!	!	!	!
1.En 1.G	1.CCC 1.CC	1.c;>	p	1.r;	.	.	.
*v	*v	*	*	*	*	*	*
!!LO:PB:g=original
==	==	==	==	==	==	==
*-	*-	*-	*-	*-	*-	*-
!!!system-decoration: (s1){(s2,s3)}
!!!RDF**kern: < = below
!!!RDF**kern: > = above
!!!ENC:Anastazja Marusiak
!!!END:2021-04-06
!!!ENC: Marta Chmielewska
!!!END: 2021-07-19
